X: 16109
T: Green Gates, The
R: reel
M: 4/4
K: Gmajor
|:GBdg (3efe dB|~g3d eged|eA~A2 EA~A2|(3Bcd ed gedB|
gBfB (3efe dB|~g3d eged|cded egdc|(3Bcd AF G4:|
|:dg~g2 bg~g2|dg~g2 (3efg dB|eA~A2 EA~A2|(3Bcd ed gedB|
dg~g2 bg~g2|dg~g2 bged|cded egdc|(3Bcd AF G4:|

